packages/appstore/src/assets/svgs/wallet/oxxo-dark.svg

<svg width="128" height="80" viewBox="0 0 128 80" fill="none" xmlns="http://www.w3.org/2000/svg">
<path fill-rule="evenodd" clip-rule="evenodd" d="M24 22.6978C24.004 21.2065 25.121 20 26.4984 20H101.608C102.985 20 104.102 21.2065 104.107 22.6978V57.3013C104.102 58.7935 102.985 60 101.608 60H26.4984C25.121 60 24.004 58.7935 24 57.3013V22.6978Z" fill="#EFA616"/>
<path fill-rule="evenodd" clip-rule="evenodd" d="M24 23.9229H104.122V56.0767H24V23.9229Z" fill="white"/>
<path fill-rule="evenodd" clip-rule="evenodd" d="M91.8991 32.29C88.2217 32.29 85.2419 35.519 85.2419 39.5019C85.2419 43.4848 88.2225 46.7137 91.8991 46.7137C95.5757 46.7137 98.5563 43.4848 98.5563 39.5019C98.5514 35.5207 95.5732 32.2944 91.8991 32.29ZM37.0608 32.29C34.3673 32.2865 31.9375 34.0417 30.9044 36.736C29.8722 39.4302 30.4391 42.5334 32.3423 44.5986C34.2455 46.6622 37.11 47.2807 39.5987 46.1651C42.0866 45.0494 43.71 42.4189 43.71 39.5019C43.7051 35.5242 40.7326 32.2997 37.0608 32.29Z" fill="#E20613"/>
<path fill-rule="evenodd" clip-rule="evenodd" d="M91.3777 25.9275C85.218 25.7816 82.3245 30.0554 78.1181 35.3489L74.1649 40.3251L80.4431 48.4701C81.9374 50.9714 79.0826 53.4552 77.2802 51.1688L71.477 43.6651L65.8158 50.7661C64.0214 53.0271 61.1989 50.5005 62.7247 48.0255L68.8601 40.3164L64.8521 35.0745L67.4367 31.649L71.5246 36.9677L75.0504 32.5226C76.7826 30.3472 78.5455 27.4598 80.8382 25.9703H24V54.072H37.2902C43.4571 54.072 46.2482 50.0812 50.3353 44.7021L54.1941 39.6227L47.7506 31.6402C46.1692 29.1731 48.9998 26.6211 50.8175 28.8647L56.7796 36.2225L62.3134 28.9765C64.069 26.6727 66.9464 29.1302 65.4763 31.6402L59.507 39.5293L63.6343 44.668L61.0327 48.008L56.9215 42.9889L53.4901 47.5109C51.8062 49.7387 50.0982 52.5737 47.845 54.1157H104.161V25.9266H91.3777V25.9275ZM47.5683 39.4864C47.5683 44.0941 45.0055 48.2491 41.0749 50.0113C37.1451 51.7734 32.6217 50.7975 29.6153 47.538C26.6072 44.2784 25.7105 39.3772 27.3403 35.12C28.9701 30.8636 32.8072 28.0906 37.0612 28.0941C42.8619 28.1081 47.5595 33.2014 47.5683 39.4864ZM91.8986 50.8692C87.6454 50.8692 83.81 48.0927 82.1834 43.8346C80.556 39.5764 81.4576 34.6761 84.4664 31.4192C87.4753 28.1614 91.9994 27.189 95.9284 28.9555C99.8574 30.7203 102.418 34.8771 102.415 39.4856C102.402 45.7697 97.7002 50.8596 91.8986 50.8692Z" fill="#E20613"/>
</svg>

<svg width="128" height="80" fill="none" xmlns="http://www.w3.org/2000/svg"><path fill-rule="evenodd" clip-rule="evenodd" d="M24 22.698C24.004 21.206 25.121 20 26.498 20h75.11c1.377 0 2.494 1.206 2.499 2.698V57.3c-.005 1.492-1.122 2.699-2.499 2.699h-75.11c-1.377 0-2.494-1.206-2.498-2.699V22.698z" fill="#EFA616"/><path fill-rule="evenodd" clip-rule="evenodd" d="M24 23.923h80.122v32.154H24V23.923z" fill="#fff"/><path fill-rule="evenodd" clip-rule="evenodd" d="M91.9 32.29c-3.678 0-6.658 3.229-6.658 7.212 0 3.983 2.98 7.212 6.657 7.212s6.657-3.23 6.657-7.212c-.005-3.981-2.983-7.208-6.657-7.212zm-54.84 0c-2.693-.004-5.123 1.752-6.156 4.446-1.032 2.694-.465 5.797 1.438 7.863 1.904 2.063 4.768 2.682 7.257 1.566 2.488-1.116 4.111-3.746 4.111-6.663-.005-3.978-2.977-7.202-6.65-7.212z" fill="#E20613"/><path fill-rule="evenodd" clip-rule="evenodd" d="M91.378 25.927c-6.16-.145-9.053 4.128-13.26 9.422l-3.953 4.976 6.278 8.145c1.494 2.501-1.36 4.985-3.163 2.699l-5.803-7.504-5.661 7.101c-1.795 2.261-4.617-.265-3.091-2.74l6.135-7.71-4.008-5.242 2.585-3.425 4.088 5.319 3.525-4.445c1.733-2.176 3.496-5.063 5.788-6.553H24v28.102h13.29c6.167 0 8.958-3.99 13.045-9.37l3.86-5.08-6.444-7.982c-1.582-2.467 1.249-5.019 3.067-2.775l5.962 7.357 5.533-7.245c1.756-2.304 4.633.153 3.163 2.663l-5.969 7.89 4.127 5.138-2.601 3.34-4.111-5.02-3.432 4.523c-1.684 2.228-3.392 5.063-5.645 6.605h56.316v-28.19H91.378v.002zm-43.81 13.56c0 4.607-2.563 8.762-6.493 10.524-3.93 1.762-8.453.786-11.46-2.473-3.008-3.26-3.904-8.16-2.275-12.418 1.63-4.256 5.467-7.03 9.721-7.026 5.8.014 10.498 5.107 10.507 11.392zm44.33 11.382c-4.253 0-8.088-2.776-9.715-7.034-1.627-4.259-.725-9.159 2.283-12.416 3.01-3.258 7.533-4.23 11.462-2.463 3.93 1.764 6.49 5.921 6.487 10.53-.013 6.284-4.715 11.374-10.516 11.383z" fill="#E20613"/></svg>
